Papirus/32x32/apps/mx-snapshot.svg

<svg width="32" height="32" version="1.1" xmlns="http://www.w3.org/2000/svg">
 <g transform="matrix(.49999999 0 0 .49999999 6e-8 .50000009)">
  <rect transform="matrix(0,-1,-1,0,0,0)" x="-56" y="-48" width="42" height="32" rx="2.5" ry="2.5" style="opacity:.2"/>
  <rect transform="matrix(0,-1,-1,0,0,0)" x="-55" y="-48" width="42" height="32" rx="2.5" ry="2.5" style="fill:#8e8e8e"/>
  <rect transform="matrix(0,-1,-1,0,0,0)" x="-50" y="-58" width="40" height="52" rx="2.5" ry="2.5" style="opacity:.2"/>
  <rect transform="matrix(0,-1,-1,0,0,0)" x="-49" y="-58" width="40" height="52" rx="2.5" ry="2.5" style="fill:#4f4f4f"/>
  <rect transform="matrix(0,-1,-1,0,0,0)" x="-45" y="-54" width="32" height="44" rx="0" ry="0" style="fill:#6b9fff"/>
  <path d="m8.5 9c-1.385 0-2.5 1.115-2.5 2.5v1c0-1.385 1.115-2.5 2.5-2.5h47c1.385 0 2.5 1.115 2.5 2.5v-1c0-1.385-1.115-2.5-2.5-2.5z" style="fill:#ffffff;opacity:.1"/>
  <rect x="10" y="45" width="44" height="1" style="fill:#ffffff;opacity:.1"/>
 </g>
 <g transform="matrix(.49999999 0 0 .49999999 .50000026 .50000009)">
  <circle cx="47" cy="47" r="16" style="opacity:.2"/>
  <circle cx="47" cy="45" r="16" style="fill:#0f56d9"/>
 </g>
 <path d="m24 17.5c-1.395928 0.0016-2.747601 0.489953-3.822266 1.380859l2.089844 3.619141 2.826172-4.895508c-0.36062-0.06821-0.726738-0.103187-1.09375-0.104492zm2.088867 0.382812-2.088867 3.617188h5.649414c-0.59332-1.673075-1.897044-2.997539-3.560547-3.617188zm-6.648438 1.720703c-0.928803 1.085871-1.439582 2.467573-1.440429 3.896485 3.44e-4 0.335121 0.02876 0.669624 0.08496 1h4.182617zm6.291993 2.896485 2.827148 4.896485c0.928804-1.085871 1.439583-2.467573 1.44043-3.896485-3.44e-4 -0.335121-0.02876-0.669624-0.08496-1zm0 2-2.826172 4.895508c0.36062 0.06821 0.726738 0.103186 1.09375 0.104492 1.395928-0.0017 2.747601-0.489953 3.822266-1.38086zm-7.381836 1c0.593319 1.673075 1.897044 2.997538 3.560547 3.617187l2.088867-3.617187z" style="opacity:.2"/>
 <path d="m24 17c-1.395928 0.0016-2.747601 0.489953-3.822266 1.380859l2.089844 3.619141 2.826172-4.895508c-0.36062-0.06821-0.726738-0.103187-1.09375-0.104492zm2.088867 0.382812-2.088867 3.617188h5.649414c-0.59332-1.673075-1.897044-2.997539-3.560547-3.617188zm-6.648438 1.720703c-0.928803 1.085871-1.439582 2.467573-1.440429 3.896485 3.44e-4 0.335121 0.02876 0.669624 0.08496 1h4.182617zm6.291993 2.896485 2.827148 4.896485c0.928804-1.085871 1.439583-2.467573 1.44043-3.896485-3.44e-4 -0.335121-0.02876-0.669624-0.08496-1zm0 2-2.826172 4.895508c0.36062 0.06821 0.726738 0.103186 1.09375 0.104492 1.395928-0.0017 2.747601-0.489953 3.822266-1.38086zm-7.381836 1c0.593319 1.673075 1.897044 2.997538 3.560547 3.617187l2.088867-3.617187z" style="fill:#ffffff"/>
</svg>

<svg xmlns="http://www.w3.org/2000/svg" width="32" height="32" version="1.1">
 <rect style="opacity:0.2" width="16" height="21" x="8" y="8" rx="1.25" ry="1.25"/>
 <rect style="fill:#8e8e8e" width="16" height="21" x="8" y="7" rx="1.25" ry="1.25"/>
 <rect style="fill:#4f4f4f" width="26" height="20" x="3" y="5" rx="1.25" ry="1.25"/>
 <rect style="fill:#6b9fff" width="22" height="16" x="5" y="7" rx="0" ry="0"/>
 <rect style="opacity:0.1;fill:#ffffff" width="22" height="1" x="5" y="23"/>
 <circle style="opacity:0.2" cx="24" cy="24" r="8"/>
 <circle style="fill:#0f56d9" cx="24" cy="23" r="8"/>
 <path style="fill:#ffffff" d="M 24,17 C 22.604,17.002 21.252,17.49 20.178,18.381 L 22.268,22 25.094,17.104 C 24.733,17.036 24.367,17.001 24,17 Z M 26.089,17.383 24,21 H 29.649 C 29.056,19.327 27.752,18.002 26.089,17.383 Z M 19.44,19.104 C 18.512,20.189 18.001,21.571 18,23 18,23.335 18.029,23.67 18.085,24 H 22.268 Z M 25.732,22 28.56,26.896 C 29.488,25.811 29.999,24.429 30,23 30,22.665 29.971,22.33 29.915,22 Z M 25.732,24 22.906,28.896 C 23.267,28.964 23.633,28.999 24,29 25.396,28.998 26.748,28.51 27.822,27.619 Z M 18.351,25 C 18.944,26.673 20.248,27.998 21.911,28.617 L 24,25 Z"/>
 <path style="fill:#ffffff;opacity:0.1" d="M 4.25 5 C 3.5575 5 3 5.5575 3 6.25 L 3 7.25 C 3 6.5575 3.5575 6 4.25 6 L 27.75 6 C 28.442 6 29 6.5575 29 7.25 L 29 6.25 C 29 5.5575 28.442 5 27.75 5 L 4.25 5 z"/>
</svg>
